src/renderer/assets/icon/mute-default-icon.svg

<svg width="15px" height="17px" viewBox="0 0 15 17" version="1.1" xmlns="http://www.w3.org/2000/svg" xmlns:xlink="http://www.w3.org/1999/xlink">
    <g id="Page-1" stroke="none" stroke-width="1" fill="none" fill-rule="evenodd">
        <g id="Artboard" transform="translate(-257.000000, -467.000000)">
            <rect x="0" y="0" width="387" height="538"></rect>
            <g id="mute" transform="translate(256.000000, 467.000000)" fill="#FFFFFF" fill-opacity="0.3">
                <g transform="translate(1.000000, 0.000000)">
                    <path d="M14.7434218,15.0467394 L1.8605228,0.796250814 C1.54376384,0.445925081 1.0030798,0.418661238 0.652802932,0.735371336 C0.302526059,1.05208143 0.275262215,1.59276547 0.591972313,1.94309121 L3.28654886,4.92364495 L2.62786808,4.92364495 L0.892949511,4.92364495 C0.650995114,4.92364495 0.441728013,5.01203257 0.265099349,5.18866124 C0.0883241042,5.36558306 -1.46579805e-05,5.57470358 -1.46579805e-05,5.8165114 L-1.46579805e-05,11.1732215 C-1.46579805e-05,11.4149805 0.0883729642,11.6242964 0.265099349,11.8009251 C0.441923453,11.9776515 0.651141694,12.0661368 0.892949511,12.0661368 L4.5477215,12.0661368 L9.19298208,16.7115928 C9.36951303,16.8879772 9.57887785,16.9764625 9.82068567,16.9764625 C10.0624935,16.9764625 10.2717606,16.8879772 10.4487313,16.7115928 C10.6252622,16.5348664 10.713601,16.3255505 10.713601,16.0838893 L10.713601,13.8677492 L10.713601,13.1391498 L13.4748713,16.1935309 C13.6436824,16.3802736 13.8760603,16.4751596 14.1094153,16.4751596 C14.3138453,16.4751596 14.5189593,16.4023094 14.6825423,16.2544104 C15.0328681,15.9377003 15.0600831,15.3970163 14.7434218,15.0467394" id="Fill-1"></path>
                    <path d="M10.7487948,9.22017264 L10.7487948,0.892973941 C10.7487948,0.651214984 10.660456,0.441752443 10.4839251,0.265074919 C10.3068078,0.0883973941 10.0976384,9.77198697e-06 9.85587948,9.77198697e-06 C9.61412052,9.77198697e-06 9.4047557,0.0883973941 9.2281759,0.265123779 L5.77656352,3.71673616 L10.7487948,9.22017264 Z" id="Fill-4"></path>
                </g>
            </g>
        </g>
    </g>
</svg>

<svg width="15" height="17" xmlns="http://www.w3.org/2000/svg">
    <g fill="none" fill-rule="evenodd">
        <path d="M-257-467h387V71h-387z"/>
        <path d="M14.743 15.047L1.861.797A.855.855 0 10.592 1.942l2.695 2.98H.893a.858.858 0 00-.628.266.858.858 0 00-.265.628v5.356c0 .242.088.451.265.628a.858.858 0 00.628.265h3.655l4.645 4.646a.859.859 0 00.628.264.86.86 0 00.628-.264.859.859 0 00.265-.628v-2.944l2.76 3.055a.853.853 0 001.209.06.855.855 0 00.06-1.207M10.749 9.22V.893a.859.859 0 00-.265-.628A.86.86 0 009.856 0a.858.858 0 00-.628.265L5.777 3.717l4.972 5.503z" fill="#FFF" fill-opacity=".3"/>
    </g>
</svg>
